packages/blockchain-info-components/src/Images/img/bc-icon.svg

<svg fill="none" height="80" viewBox="0 0 80 80" width="80" xmlns="http://www.w3.org/2000/svg"><path d="m6.84509 29.0732-3.64998 3.65c-1.01025.9705-1.814 2.1351-2.363048 3.4239-.549053 1.2888-.832062 2.6752-.832062 4.0761s.283009 2.7873.832062 4.0761c.549048 1.2888 1.352798 2.4534 2.363048 3.4239l29.40489 29.6951c.697.713 1.5081 1.3044 2.4 1.75v-35.9951z" fill="#3d89f5"/><path d="m73.1549 29.0732 3.65 3.65c1.0102.9705 1.814 2.1351 2.363 3.4239.5491 1.2888.8321 2.6752.8321 4.0761s-.283 2.7873-.8321 4.0761c-.549 1.2888-1.3528 2.4534-2.363 3.4239l-29.4049 29.6951c-.697.713-1.5081 1.3044-2.4 1.75v-35.9951z" fill="#1656b9"/><path d="m66.0951 21.6232-18.4-18.45002c-.9741-1.00398-2.1399-1.80219-3.4282-2.34726-1.2883-.545068-2.6729-.82592-4.0718-.82592s-2.7836.280852-4.0719.82592c-1.2883.54507-2.454 1.34328-3.4281 2.34726l-18.45 18.45002 25.85 12.9z" fill="#85b5f8"/></svg>

<svg width="80" height="80" viewBox="0 0 80 80" fill="none" xmlns="http://www.w3.org/2000/svg">
	<path d="M6.84509 29.0732L3.19511 32.7232C2.18486 33.6937 1.38111 34.8583 0.832062 36.1471C0.283009 37.4359 0 38.8223 0 40.2232C0 41.6241 0.283009 43.0105 0.832062 44.2993C1.38111 45.5881 2.18486 46.7527 3.19511 47.7232L32.6 77.4183C33.297 78.1313 34.1081 78.7227 35 79.1683V43.1732L6.84509 29.0732Z" fill="#3D89F5"/>
	<path d="M73.1549 29.0732L76.8049 32.7232C77.8151 33.6937 78.6189 34.8583 79.1679 36.1471C79.717 37.4359 80 38.8223 80 40.2232C80 41.6241 79.717 43.0105 79.1679 44.2993C78.6189 45.5881 77.8151 46.7527 76.8049 47.7232L47.4 77.4183C46.703 78.1313 45.8919 78.7227 45 79.1683V43.1732L73.1549 29.0732Z" fill="#1656B9"/>
	<path d="M66.0951 21.6232L47.6951 3.17318C46.721 2.1692 45.5552 1.37099 44.2669 0.82592C42.9786 0.280852 41.594 0 40.1951 0C38.7962 0 37.4115 0.280852 36.1232 0.82592C34.8349 1.37099 33.6692 2.1692 32.6951 3.17318L14.2451 21.6232L40.0951 34.5232L66.0951 21.6232Z" fill="#85B5F8"/>
</svg>
